packages/icons/raw/imported/FilesGlasses.svg

<svg width="32" height="32" viewBox="0 0 32 32" fill="none" xmlns="http://www.w3.org/2000/svg">
<path d="M9.42308 9.42308L9.90901 9.54088L9.91139 9.53105L9.91337 9.52114L9.42308 9.42308ZM12.3462 7C12.6223 7 12.8462 6.77614 12.8462 6.5C12.8462 6.22386 12.6223 6 12.3462 6V7ZM6.01407 21.3631C5.94902 21.6315 6.11383 21.9018 6.3822 21.9668C6.65057 22.0319 6.92087 21.8671 6.98593 21.5987L6.01407 21.3631ZM22.5769 9.42308L22.0866 9.52114L22.0886 9.53105L22.091 9.54088L22.5769 9.42308ZM19.6538 6C19.3777 6 19.1538 6.22386 19.1538 6.5C19.1538 6.77614 19.3777 7 19.6538 7V6ZM25.0141 21.5987C25.0791 21.8671 25.3494 22.0319 25.6178 21.9668C25.8862 21.9018 26.051 21.6315 25.9859 21.3631L25.0141 21.5987ZM13.3077 21.8462C13.3077 23.588 11.8957 25 10.1538 25V26C12.448 26 14.3077 24.1403 14.3077 21.8462H13.3077ZM10.1538 25C8.41203 25 7 23.588 7 21.8462H6C6 24.1403 7.85974 26 10.1538 26V25ZM7 21.8462C7 20.1043 8.41202 18.6923 10.1538 18.6923V17.6923C7.85974 17.6923 6 19.552 6 21.8462H7ZM10.1538 18.6923C11.8957 18.6923 13.3077 20.1043 13.3077 21.8462H14.3077C14.3077 19.552 12.448 17.6923 10.1538 17.6923V18.6923ZM25 21.8462C25 23.588 23.588 25 21.8462 25V26C24.1403 26 26 24.1403 26 21.8462H25ZM21.8462 25C20.1043 25 18.6923 23.588 18.6923 21.8462H17.6923C17.6923 24.1403 19.552 26 21.8462 26V25ZM18.6923 21.8462C18.6923 20.1043 20.1043 18.6923 21.8462 18.6923V17.6923C19.552 17.6923 17.6923 19.552 17.6923 21.8462H18.6923ZM21.8462 18.6923C23.588 18.6923 25 20.1043 25 21.8462H26C26 19.552 24.1403 17.6923 21.8462 17.6923V18.6923ZM18.1923 21.3462H13.8077V22.3462H18.1923V21.3462ZM9.91337 9.52114C10.085 8.66308 10.382 8.03322 10.7766 7.62308C11.1586 7.22599 11.6644 7 12.3462 7V6C11.4135 6 10.6405 6.32209 10.0559 6.92981C9.48386 7.52447 9.12657 8.35615 8.93279 9.32502L9.91337 9.52114ZM8.93716 9.30528L6.01407 21.3631L6.98593 21.5987L9.90901 9.54088L8.93716 9.30528ZM23.0672 9.32502C22.8734 8.35615 22.5161 7.52447 21.9441 6.92981C21.3595 6.32209 20.5865 6 19.6538 6V7C20.3356 7 20.8414 7.22599 21.2234 7.62308C21.618 8.03322 21.915 8.66308 22.0866 9.52114L23.0672 9.32502ZM22.091 9.54088L25.0141 21.5987L25.9859 21.3631L23.0628 9.30528L22.091 9.54088Z" fill="black"/>
</svg>

<svg width="32" height="32" fill="none" xmlns="http://www.w3.org/2000/svg"><path d="m9.423 9.423.486.118.002-.01.002-.01-.49-.098ZM12.346 7a.5.5 0 0 0 0-1v1ZM6.014 21.363a.5.5 0 1 0 .972.236l-.972-.236Zm16.563-11.94-.49.098.002.01.002.01.486-.118ZM19.654 6a.5.5 0 0 0 0 1V6Zm5.36 15.599a.5.5 0 1 0 .972-.236l-.972.236Zm-11.706.247A3.154 3.154 0 0 1 10.154 25v1a4.154 4.154 0 0 0 4.154-4.154h-1ZM10.154 25A3.154 3.154 0 0 1 7 21.846H6A4.154 4.154 0 0 0 10.154 26v-1ZM7 21.846a3.154 3.154 0 0 1 3.154-3.154v-1A4.154 4.154 0 0 0 6 21.846h1Zm3.154-3.154a3.154 3.154 0 0 1 3.154 3.154h1a4.154 4.154 0 0 0-4.154-4.154v1ZM25 21.846A3.154 3.154 0 0 1 21.846 25v1A4.154 4.154 0 0 0 26 21.846h-1ZM21.846 25a3.154 3.154 0 0 1-3.154-3.154h-1A4.154 4.154 0 0 0 21.846 26v-1Zm-3.154-3.154a3.154 3.154 0 0 1 3.154-3.154v-1a4.154 4.154 0 0 0-4.154 4.154h1Zm3.154-3.154A3.154 3.154 0 0 1 25 21.846h1a4.154 4.154 0 0 0-4.154-4.154v1Zm-3.654 2.654h-4.384v1h4.384v-1ZM9.913 9.521c.172-.858.469-1.488.864-1.898.382-.397.887-.623 1.57-.623V6c-.933 0-1.707.322-2.291.93-.572.594-.93 1.426-1.123 2.395l.98.196Zm-.976-.216L6.014 21.363l.972.236L9.909 9.54l-.972-.236Zm14.13.02c-.194-.969-.55-1.8-1.123-2.395-.584-.608-1.357-.93-2.29-.93v1c.682 0 1.187.226 1.57.623.394.41.691 1.04.863 1.898l.98-.196Zm-.976.216 2.923 12.058.972-.236-2.923-12.058-.972.236Z" fill="#000"/></svg>
